X:1
T:Se stimi si gran pregio
T:Domenico Micheli
T:Se stimi si gran pregio
T:Canzon, seconda stanze
C:Domenico Micheli
%%score [ 1 [ 2 3 ] 4 ]
L:1/8
Q:1/4=100
M:4/2
K:C
V:1 alto1 nm="Alto" snm="A"
V:2 alto nm="Tenor" snm="T"
V:3 alto nm="Quinto" snm="Q"
V:4 bass3 nm="Bass" snm="B"
V:1
 z16 |[K:Bb][K:treble] F8 G4 G2 A2- | A2 A2 B6 B2 B2 A2 | G8 A8 | z2 F2 B4 G2 B4 B2 | %5
w: |Se sti- mi si|_ gran pre- gio il rac- qui-|star- mi,|D'altr' o- ro d'al- tra|
 A2 B2 G2 F4 =E2 F4 | D4 z2 F2 F2 E2 D2 C2 | DB, B4 A2 G8 | A4 z2 F2 B2 G2 A2 F2- | %9
w: lin- gua e d'al- tri _ sguar-|di, Fa i nod' il fo- co ei|dar- * * * *|di, Ma men- tre con quei|
 F2 G4 F2 F2 =E2 F4 | F8 z2 G2 ABcA | B2 A2 c3 B A2 B2 G4 | A4 z2 B2 A2 G2 G2 F2 | %13
w: _ lac- ci e con quell' ar-|me, Se- gui la men- te|fug- gi- tiv' _ _ et va-|ga, Se- gui la men- te|
 G6 G2 ABcA B2 A2 | G8 A4 z2 A2- | A2 B4 G2 G4 A4 | B4 z2 G2 A4 F4- | F2 G4 A2 B8 | z4 G8 A4 | %19
w: fug- gi- tiv' _ _ _ _ et|va- ga, Ne|_ gio- go al col- lo ha-|vro, Ne gio- go al|_ col- lo ha- vro|ne al pet-|
 F4 B8 A2 c2 | B2 G2 A4 F4 z4 | z2 C2 F2 D2 =E2 E2 F2 C2 | D3 C B,4 C2 c2 B2 G2 | A4 G4 F4 z2 F2- | %24
w: to pia- ga, ne al|pet- to pia- ga,|Ne gio- go al col- lo ha- vro ne al|pet- to pia- ga, ne al pet- to|pia- * ga, ne al|
 F2 B4 G2 F8 | F16 |] %26
w: _ pet- to pia-|ga.|
V:2
 z16 |[K:Bb][K:treble-8] d8 e4 d2 f2- | f2 f2 f6 f2 g2 f2- | f2 =ed e4 f4 z2 c2 | d4 B4 z4 f4- | %5
w: |Se sti- mi si|_ gran pre- gio il rac- qui-|* * * star- mi, D'altr'|o- ro d'al-|
 f2 d2 e2 c4 c4 A2 | B4 F4 z4 z2 f2 | f2 e2 f4 d4 =e4 | f2 c2 d2 B4 c4 A2 | B4 c4 d2 cB A2 d2 | %10
w: * tra lin- gua e d'al- tri|sguar- di, Fa i|nod' il fo- co ei dar-|di, Ma men- tre con quei|lac- ci e con _ _ _ quell'|
 c4 de f4 e2 f2 c2 | defd =e2 g2 f2 B2 c4 | F4 z4 z4 z2 c2 | e2 d2 =e3 e f2 c2 d2 c2 | c16 | %15
w: ar- * * * * me, Se-|gui la men- te fug- gi- tiv' et va-|ga, Se-|gui la men- te fug- gi- tiv' et|va-|
 f2 d2 g2 e2 d2 =e2 f4- | f4 z4 c4 d4 | c2 e2 d2 f4 d2 g4 | f3 edc d2 =e4 f4 | z2 f4 g4 g2 c4 | %20
w: ga, Ne gio- go al col- lo ha- vro,|_ Ne gio-|go al col- lo ha- vro ne al pet-|to _ _ _ _ pia- ga,|ne al pet- to pia-|
 d2 =e2 f2 c2 d4 B2 c2- | c2 A2 A2 B2 c4 F2 f2- | f2 d4 e2 f2 f3 =e/d/ed | %23
w: ga, Ne gio- go al col- lo ha- vro|_ ne al pet- to pia- ga, Ne|_ gio- go al col- lo ha- * * * *|
 f2 F2 c3 B A2 B3 A/G/ A2 | B2 f2 e3 d c2 d2 c4 | d16 |] %26
w: vro ne al pet- * to pia- * * *|ga, ne al pet- * * to pia-|ga.|
V:3
 z16 |[K:Bb][K:treble-8] B8 B4 B2 c2- | c2 c2 d6 d2 e2 c2 | c8 c2 c2 f4- | f2 d4 e4 e2 d4 | %5
w: |Se sti- mi si|_ gran pre- gio il rac- qui-|star- mi, D'altr' o-|* ro d'al- tra lin-|
 c2 B4 A2 G4 F4 | z2 B2 B2 A2 B2 G2 F4 | B4 z2 F2 G4 C2 c2- | c2 f4 d2 e4 c4 | %9
w: gua e d'al- tri sguar- di,|Fa i nod' il fo- co ei dar-|di, ei dar- di, Ma|_ men- tre con quei|
 dcBA G2 A2 B2 G2 F2 B2- | BA/G/ A2 B3 A G4 F4 | z4 c4 defd =e2 e2 | fedcBcdB c2 e2 d2 c2- | %13
w: lac- * * * * ci e con quell' ar- *|* * * * * * * me,|Se- gui la men- te fug- gi-|tiv' _ _ _ _ _ _ _ _ et va- *|
 c2 =B2 c4 F2 f3 d f2- | f2 =ed e2 e2 f8 | F2 B2 G2 c2 =B2 c2 F2 c2 | dB f4 =e2 f2 F2 B4 | %17
w: * * * ga, fug- gi- tiv'|_ _ _ _ et va-|ga, Ne gio- go al col- lo ha- vro, Ne|gio- go al col- lo ha- vro, Ne gio-|
 A2 B4 c2 d2 f2 e4 | d2 c3 =B/A/ B2 c4 F2 c2- | c2 d4 e2 dcde f4 | B2 c4 A4 B2 G4 | %21
w: go al col- lo ha- vro ne al pet-|to pia- * * * * ga, ne al|_ pet- to pia- * * * *|ga, Ne gio- go al col-|
 A4 F4 G4 A2 A2 | B3 A G4 F4 z2 B2 | c2 d2 e4 d2 d2 c4 | dcBA GABG AF B4 A2 | B16 |] %26
w: lo ha- vro ne al pet- to|pia- * * ga, ne al|pet- to pia- ga, ne al pet-|to _ _ _ _ _ _ _ _ _ pia- *|ga.|
V:4
 z16 |[K:Bb][K:bass] B,,8 E,4 G,2 F,2- | F,2 F,2 B,6 B,,2 E,2 F,2 | C,8 F,4 z2 F,2 | %4
w: |Se sti- mi si|_ gran pre- gio il rac- qui-|star- mi, D'altr'|
 B,4 B,,2 E,4 E,2 B,,C,D,E, | F,2 B,,2 E,2 F,2 C,4 F,4 | z8 z2 B,2 B,2 A,2 | %7
w: o- ro d'al- tra lin- * * *|* gua e d'al- tri sguar- di,|Fa i nod' il|
 G,4 F,2 C3 B,/A,/ B,2 C4 | F,2 F,2 B,4 E,4 F,4 | B,,2 E,4 F,2 B,,2 C,2 D,3 E, | F,4 B,,4 z8 | %11
w: fo- co ei dar- * * * *|di, Ma men- tre con|quei lac- ci e con quell' ar- *|* me,|
 z16 | z2 F,2 G,A,B,G, A,2 C2 B,2 A,2 | G,4 C,2 C4 F,2 B,2 F,2 | C,8 F,8 | z8 z2 C,2 C2 F,2 | %16
w: |Se- gui la men- te fug- gi- tiv' et|va- ga, fug- gi- tiv' et|va- ga,|Ne gio- go al|
 B,4 C4 F,4 z2 B,,2 | F,2 E,2 G,2 F,2 B,2 B,,2 E,F,G,A, | B,2 F,2 G,4 C,4 z2 F,2- | %19
w: col- lo ha- vro, Ne|gio- go al col- lo ha- vro ne al pet- * * *|* to pia- ga, ne al|
 F,2 B,4 E,2 G,4 F,4 | z2 C,2 F,4 D,4 E,2 D,2 | F,2 F,2 D,4 C,4 F,4 | B,,4 z2 B,2 A,2 F,2 G,4 | %23
w: _ pet- to pia- ga,|Ne gio- go al col- lo ha-|vro ne al pet- to pia-|ga, ne al pet- to pia-|
 F,4 z2 C,2 D,3 E, F,4 | B,,4 E,4 F,2 B,,2 F,4 | B,,16 |] %26
w: ga, ne al pet- to pia-|ga, ne al pet- to pia-|ga.|

